ix/programming-arrows_outline.svg

<svg viewBox="0 0 24 24" fill="none" xmlns="http://www.w3.org/2000/svg" height="1em" width="1em">
  <path d="M19 16.75C18.59 16.75 18.25 16.41 18.25 16V6.5C18.25 5.81 17.69 5.25 17 5.25H11.5C11.09 5.25 10.75 4.91 10.75 4.5C10.75 4.09 11.09 3.75 11.5 3.75H17C18.52 3.75 19.75 4.98 19.75 6.5V16C19.75 16.41 19.41 16.75 19 16.75Z" fill="#292D32"/>
  <path d="M14 7.74993C13.83 7.74993 13.66 7.68995 13.52 7.57995L10.52 5.07995C10.35 4.93995 10.25 4.72993 10.25 4.49993C10.25 4.26993 10.35 4.06991 10.52 3.91991L13.52 1.41991C13.84 1.14991 14.31 1.19995 14.58 1.51995C14.85 1.83995 14.8 2.30995 14.48 2.57995L12.17 4.49993L14.48 6.41991C14.8 6.68991 14.84 7.15991 14.58 7.47991C14.43 7.65991 14.21 7.74993 14 7.74993Z" fill="#292D32"/>
  <path d="M19 22.75C16.93 22.75 15.25 21.07 15.25 19C15.25 16.93 16.93 15.25 19 15.25C21.07 15.25 22.75 16.93 22.75 19C22.75 21.07 21.07 22.75 19 22.75ZM19 16.75C17.76 16.75 16.75 17.76 16.75 19C16.75 20.24 17.76 21.25 19 21.25C20.24 21.25 21.25 20.24 21.25 19C21.25 17.76 20.24 16.75 19 16.75Z" fill="#292D32"/>
  <path d="M12.5 20.25H7C5.48 20.25 4.25 19.02 4.25 17.5V8C4.25 7.59 4.59 7.25 5 7.25C5.41 7.25 5.75 7.59 5.75 8V17.5C5.75 18.19 6.31 18.75 7 18.75H12.5C12.91 18.75 13.25 19.09 13.25 19.5C13.25 19.91 12.91 20.25 12.5 20.25Z" fill="#292D32"/>
  <path d="M10.0009 22.7497C9.7909 22.7497 9.57092 22.6597 9.42092 22.4797C9.15092 22.1597 9.20089 21.6897 9.52089 21.4197L11.8309 19.4997L9.52089 17.5797C9.20089 17.3097 9.16092 16.8397 9.42092 16.5197C9.69092 16.1997 10.1609 16.1597 10.4809 16.4197L13.4809 18.9197C13.6509 19.0597 13.7509 19.2697 13.7509 19.4997C13.7509 19.7297 13.6509 19.9297 13.4809 20.0797L10.4809 22.5797C10.3409 22.6897 10.1709 22.7497 10.0009 22.7497Z" fill="#292D32"/>
  <path d="M5 8.75C2.93 8.75 1.25 7.07 1.25 5C1.25 2.93 2.93 1.25 5 1.25C7.07 1.25 8.75 2.93 8.75 5C8.75 7.07 7.07 8.75 5 8.75ZM5 2.75C3.76 2.75 2.75 3.76 2.75 5C2.75 6.24 3.76 7.25 5 7.25C6.24 7.25 7.25 6.24 7.25 5C7.25 3.76 6.24 2.75 5 2.75Z" fill="#292D32"/>
</svg>

<svg viewBox="0 0 24 24" fill="none" xmlns="http://www.w3.org/2000/svg" height="1em" width="1em">
  <path d="M19 16.75c-.41 0-.75-.34-.75-.75V6.5c0-.69-.56-1.25-1.25-1.25h-5.5c-.41 0-.75-.34-.75-.75s.34-.75.75-.75H17c1.52 0 2.75 1.23 2.75 2.75V16c0 .41-.34.75-.75.75Z" fill="#292D32"/>
  <path d="M14 7.75c-.17 0-.34-.06-.48-.17l-3-2.5a.761.761 0 0 1 0-1.16l3-2.5a.75.75 0 0 1 1.06.1c.27.32.22.79-.1 1.06L12.17 4.5l2.31 1.92c.32.27.36.74.1 1.06-.15.18-.37.27-.58.27Zm5 15c-2.07 0-3.75-1.68-3.75-3.75 0-2.07 1.68-3.75 3.75-3.75 2.07 0 3.75 1.68 3.75 3.75 0 2.07-1.68 3.75-3.75 3.75Zm0-6c-1.24 0-2.25 1.01-2.25 2.25s1.01 2.25 2.25 2.25 2.25-1.01 2.25-2.25-1.01-2.25-2.25-2.25Zm-6.5 3.5H7c-1.52 0-2.75-1.23-2.75-2.75V8c0-.41.34-.75.75-.75s.75.34.75.75v9.5c0 .69.56 1.25 1.25 1.25h5.5c.41 0 .75.34.75.75s-.34.75-.75.75Z" fill="#292D32"/>
  <path d="M10 22.75a.75.75 0 0 1-.48-1.33l2.31-1.92-2.31-1.92a.758.758 0 0 1-.1-1.06c.27-.32.74-.36 1.06-.1l3 2.5a.761.761 0 0 1 0 1.16l-3 2.5c-.14.11-.31.17-.48.17Zm-5-14C2.93 8.75 1.25 7.07 1.25 5c0-2.07 1.68-3.75 3.75-3.75 2.07 0 3.75 1.68 3.75 3.75 0 2.07-1.68 3.75-3.75 3.75Zm0-6C3.76 2.75 2.75 3.76 2.75 5S3.76 7.25 5 7.25 7.25 6.24 7.25 5 6.24 2.75 5 2.75Z" fill="#292D32"/>
</svg>
